assets/img/success-stories/cruk/twitter.svg

<?xml version="1.0" encoding="UTF-8" standalone="no"?>
<svg width="36px" height="36px" viewBox="0 0 36 36" version="1.1" xmlns="http://www.w3.org/2000/svg" xmlns:xlink="http://www.w3.org/1999/xlink">
    <!-- Generator: sketchtool 40.3 (33839) - http://www.bohemiancoding.com/sketch -->
    <title>58EA23FC-5A90-4373-BB51-4EF9ED2488E0</title>
    <desc>Created with sketchtool.</desc>
    <defs></defs>
    <g id="Page-1" stroke="none" stroke-width="1" fill="none" fill-rule="evenodd">
        <g id="Desktop-HD" transform="translate(-1312.000000, -974.000000)">
            <g id="fixed-nav" transform="translate(-12.000000, 961.000000)">
                <g id="social-icons" transform="translate(1264.000000, 11.000000)">
                    <g id="TWEET" transform="translate(60.000000, 2.000000)">
                        <path d="M23.6192702,0 L23.6192702,0.0508609272 C23.6192702,0.262251656 23.3863721,0.518145695 22.9157904,0.818543046 L22.9476942,0.818543046 C23.6527692,0.551523179 24.1791827,0.418013245 24.5253394,0.418013245 C24.7821654,0.418013245 24.9097808,0.513377483 24.9097808,0.700927152 L24.9097808,0.818543046 C24.8443779,0.985430464 24.5971231,1.15390728 24.1712067,1.3207947 C23.534725,1.48768212 23.0258587,1.63708609 22.6477981,1.77218543 L22.6477981,1.80556291 L22.9652413,1.80556291 C24.6752875,1.80556291 26.2114577,2.71470199 27.5769423,4.52821192 C28.146426,5.53112583 28.4718452,6.3607947 28.5500096,7.01721854 C28.6377452,7.1618543 28.9567837,7.23496689 29.5055298,7.23496689 L29.6060269,7.23496689 C30.3653385,7.23496689 31.1198644,7.06807947 31.8696048,6.73271523 L31.8696048,6.76768212 C31.6239452,7.4018543 31.1039125,7.88662252 30.3095067,8.22039735 C29.7623558,8.43178808 29.3029404,8.53827815 28.9360462,8.53827815 C28.9360462,8.62728477 29.3731288,8.73854305 30.2425087,8.87205298 L31.0991269,8.9213245 L31.3160731,8.9213245 L31.9701019,8.87205298 L32.003601,8.88953642 L32.003601,8.9213245 C31.199624,9.73509934 30.0813942,10.1419868 28.6505067,10.1419868 L28.6505067,10.1753642 C28.2820173,11.7234437 27.5227058,13.1491391 26.3693817,14.4524503 C25.7456615,15.1772185 25.1969154,15.7064901 24.7247385,16.0386755 C23.9558558,16.6410596 23.127951,17.1639735 22.2458096,17.610596 C19.9630894,18.7025166 17.7170587,19.2476821 15.5045269,19.2476821 L14.8489029,19.2476821 C12.2327875,19.2476821 9.70759808,18.4688742 7.27014423,16.9080795 C6.75649231,16.5965563 5.97803846,15.922649 4.93956827,14.887947 C4.31265769,14.1631788 4,13.7674172 4,13.7006623 C5.46598173,15.0055629 7.16805192,15.6556291 9.11418654,15.6556291 C10.9582288,15.6556291 12.618824,14.9992053 14.0943769,13.6847682 C14.2060404,13.5274172 14.2889904,13.4495364 14.3464173,13.4495364 L14.3464173,13.4336424 L14.161375,13.4495364 L13.9093346,13.4495364 C13.3621837,13.4495364 12.9043635,13.2270199 12.5342788,12.7835762 C12.411449,12.5928477 12.3508317,12.4148344 12.3508317,12.247947 C12.3508317,11.8140397 12.6858221,11.429404 13.3558029,11.0956291 L13.3558029,11.0797351 L12.9538144,11.0797351 C11.6345904,11.0797351 10.6615231,10.5011921 10.0362077,9.34092715 C10.4940279,8.90701987 10.9582288,8.67337748 11.4272154,8.64 L11.846751,8.58913907 L11.846751,8.57324503 C10.7061885,8.28397351 9.89583077,7.83258278 9.41567788,7.22066225 C9.05835481,6.68503311 8.86214615,6.21774834 8.83024231,5.81562914 C9.42205865,5.65986755 9.96920962,5.58198675 10.4732904,5.58198675 L10.4732904,5.56609272 C10.0824683,5.43099338 9.54488846,5.00344371 8.86214615,4.27708609 C8.39156442,3.60953642 8.15866635,3.00238411 8.15866635,2.45721854 L8.15866635,2.10596026 C9.00730865,2.38410596 10.2882481,2.88635762 11.9982942,3.60953642 C13.9763327,4.49006623 15.3178894,5.17509934 16.0213692,5.66463576 C16.52545,6.06516556 17.0056029,6.48317881 17.4634231,6.91708609 L17.4809702,6.91708609 C18.0727865,5.28 18.7379817,3.86543046 19.4765558,2.67337748 C19.7908087,2.12821192 20.3443404,1.47655629 21.1355558,0.72 L21.8390356,0.201854305 L21.8581779,0.217748344 L21.8581779,0.252715232 C21.8246788,0.452980132 21.7513,0.635761589 21.6396365,0.802649007 L21.6396365,0.82013245 L21.6571837,0.82013245 C22.4627558,0.271788079 23.1151894,0 23.6192702,0" id="Fill-1" fill="#1DA1F2"></path>
                        <text font-family="OpenSans-Semibold, Open Sans" font-size="11" font-weight="500" fill="#40C2F3">
                            <tspan x="0.433837891" y="36">TWEET</tspan>
                        </text>
                    </g>
                </g>
            </g>
        </g>
    </g>
</svg>

<?xml version="1.0" encoding="UTF-8" standalone="no"?>
<svg
   xmlns:dc="http://purl.org/dc/elements/1.1/"
   xmlns:cc="http://creativecommons.org/ns#"
   xmlns:rdf="http://www.w3.org/1999/02/22-rdf-syntax-ns#"
   xmlns:svg="http://www.w3.org/2000/svg"
   xmlns="http://www.w3.org/2000/svg"
   xmlns:sodipodi="http://sodipodi.sourceforge.net/DTD/sodipodi-0.dtd"
   xmlns:inkscape="http://www.inkscape.org/namespaces/inkscape"
   width="36px"
   height="36px"
   viewBox="0 0 36 36"
   version="1.1"
   id="svg2"
   inkscape:version="0.91 r13725"
   sodipodi:docname="twitter.svg">
  <metadata
     id="metadata22">
    <rdf:RDF>
      <cc:Work
         rdf:about="">
        <dc:format>image/svg+xml</dc:format>
        <dc:type
           rdf:resource="http://purl.org/dc/dcmitype/StillImage" />
      </cc:Work>
    </rdf:RDF>
  </metadata>
  <sodipodi:namedview
     pagecolor="#ffffff"
     bordercolor="#666666"
     borderopacity="1"
     objecttolerance="10"
     gridtolerance="10"
     guidetolerance="10"
     inkscape:pageopacity="0"
     inkscape:pageshadow="2"
     inkscape:window-width="869"
     inkscape:window-height="480"
     id="namedview20"
     showgrid="false"
     inkscape:zoom="6.5555556"
     inkscape:cx="18"
     inkscape:cy="18"
     inkscape:window-x="0"
     inkscape:window-y="24"
     inkscape:window-maximized="0"
     inkscape:current-layer="svg2" />
  <!-- Generator: sketchtool 40.3 (33839) - http://www.bohemiancoding.com/sketch -->
  <title
     id="title4">58EA23FC-5A90-4373-BB51-4EF9ED2488E0</title>
  <desc
     id="desc6">Created with sketchtool.</desc>
  <defs
     id="defs8" />
  <path
     style="fill:#1da1f2;fill-rule:evenodd;stroke:none;stroke-width:1"
     inkscape:connector-curvature="0"
     id="Fill-1"
     d="m 23.61927,0 0,0.05086093 c 0,0.21139073 -0.232898,0.46728476 -0.70348,0.76768212 l 0.0319,0 c 0.705075,-0.26701987 1.231489,-0.4005298 1.577645,-0.4005298 0.256826,0 0.384442,0.0953642 0.384442,0.2829139 l 0,0.1176159 c -0.0654,0.16688741 -0.312658,0.33536425 -0.738574,0.50225165 -0.636482,0.1668874 -1.145348,0.3162914 -1.523409,0.4513907 l 0,0.033378 0.317443,0 c 1.710046,0 3.246217,0.9091391 4.611701,2.722649 0.569484,1.0029139 0.894903,1.8325828 0.973068,2.4890066 0.08773,0.1446358 0.406774,0.2177484 0.95552,0.2177484 l 0.100497,0 c 0.759311,0 1.513837,-0.1668874 2.263578,-0.5022517 l 0,0.034967 c -0.24566,0.6341722 -0.765693,1.1189404 -1.560098,1.4527153 -0.547151,0.2113907 -1.006567,0.3178808 -1.373461,0.3178808 0,0.089007 0.437083,0.2002649 1.306463,0.3337748 l 0.856618,0.049272 0.216946,0 0.654029,-0.049272 0.0335,0.017483 0,0.031788 c -0.803977,0.8137748 -1.922207,1.2206624 -3.353094,1.2206624 l 0,0.03338 c -0.36849,1.54808 -1.127801,2.973775 -2.281125,4.277086 -0.623721,0.724769 -1.172467,1.25404 -1.644644,1.586225 -0.768882,0.602385 -1.596787,1.125298 -2.478928,1.571921 -2.282721,1.091921 -4.528751,1.637086 -6.741283,1.637086 l -0.655624,0 c -2.616115,0 -5.1413049,-0.778808 -7.5787588,-2.339603 C 6.7564923,16.596556 5.9780385,15.922649 4.9395683,14.887947 4.3126577,14.163179 4,13.767417 4,13.700662 c 1.4659817,1.304901 3.1680519,1.954967 5.1141865,1.954967 1.8440425,0 3.5046375,-0.656424 4.9801905,-1.970861 0.111663,-0.157351 0.194613,-0.235232 0.25204,-0.235232 l 0,-0.01589 -0.185042,0.01589 -0.25204,0 c -0.547151,0 -1.004971,-0.222516 -1.375056,-0.66596 -0.12283,-0.190728 -0.183447,-0.368742 -0.183447,-0.535629 0,-0.433907 0.33499,-0.818543 1.004971,-1.152318 l 0,-0.01589 -0.401989,0 c -1.319224,0 -2.292291,-0.578543 -2.917606,-1.7388078 C 10.494028,8.9070199 10.958229,8.6733775 11.427215,8.64 l 0.419536,-0.050861 0,-0.015894 C 10.706189,8.2839735 9.8958308,7.8325828 9.4156779,7.2206622 9.0583548,6.6850331 8.8621461,6.2177483 8.8302423,5.8156291 9.4220587,5.6598676 9.9692096,5.5819868 10.47329,5.5819868 l 0,-0.015894 C 10.082468,5.4309934 9.5448885,5.0034437 8.8621461,4.2770861 8.3915644,3.6095364 8.1586664,3.0023841 8.1586664,2.4572185 l 0,-0.3512582 c 0.8486423,0.2781457 2.1295816,0.7803973 3.8396276,1.5035761 1.978039,0.8805298 3.319595,1.5655629 4.023075,2.0550994 0.504081,0.4005298 0.984234,0.818543 1.442054,1.2524503 l 0.01755,0 C 18.072786,5.28 18.737982,3.8654305 19.476556,2.6733775 19.790809,2.1282119 20.34434,1.4765563 21.135556,0.72 l 0.70348,-0.51814569 0.01914,0.015894 0,0.0349669 c -0.0335,0.2002649 -0.106878,0.38304636 -0.218541,0.54993378 l 0,0.0174834 0.01755,0 C 22.462756,0.27178808 23.115189,0 23.61927,0" />
  <g
     style="font-weight:500;font-size:11px;font-family:OpenSans-Semibold, 'Open Sans';fill:#40c2f3;fill-rule:evenodd;stroke:none;stroke-width:1"
     id="text16">
    <path
       d="m 3.9304199,36 -0.9130859,0 0,-7.041504 -2.48681642,0 0,-0.811035 5.88671872,0 0,0.811035 -2.4868164,0 0,7.041504 z"
       style=""
       id="path4176" />
    <path
       d="m 14.447021,36 -0.902343,0 -1.584473,-5.258301 q -0.112793,-0.349121 -0.252441,-0.880859 -0.139649,-0.531738 -0.14502,-0.63916 -0.118164,0.708984 -0.375976,1.552246 L 9.6506348,36 8.748291,36 6.6589355,28.147461 l 0.9667969,0 1.2407227,4.850098 q 0.2578125,1.020507 0.3759765,1.847656 0.1450196,-0.98291 0.4296875,-1.922852 l 1.4072269,-4.774902 0.966797,0 1.47705,4.817871 q 0.257813,0.83252 0.435059,1.879883 0.102051,-0.762695 0.386719,-1.858399 l 1.235351,-4.839355 0.966797,0 L 14.447021,36 Z"
       style=""
       id="path4178" />
    <path
       d="m 22.154541,36 -4.377441,0 0,-7.852539 4.377441,0 0,0.811035 -3.464355,0 0,2.529785 3.254882,0 0,0.805664 -3.254882,0 0,2.889649 3.464355,0 0,0.816406 z"
       style=""
       id="path4180" />
    <path
       d="m 28.277588,36 -4.377442,0 0,-7.852539 4.377442,0 0,0.811035 -3.464356,0 0,2.529785 3.254883,0 0,0.805664 -3.254883,0 0,2.889649 3.464356,0 0,0.816406 z"
       style=""
       id="path4182" />
    <path
       d="m 32.440186,36 -0.913086,0 0,-7.041504 -2.486817,0 0,-0.811035 5.886719,0 0,0.811035 -2.486816,0 0,7.041504 z"
       style=""
       id="path4184" />
  </g>
</svg>
